X:135
T: Dancing at the Crossroads
S: B. Conway
Z: B.Black
R: jig
M: 6/8
L: 1/8
K: G
A |: BAB G2 D | GAG G2 A | BAB GAB | A2 B cBA |
BAB G2 D | GAG GBc | d3 dcB | A2 B cBA :|
B2 d ded | ded ded | B2 d d^cd | e2 f g3 |
B2 d ded | ded def | gfe dBG | A2 B cBA :|
